symbols/web/stop_screen_share/materialsymbolsoutlined/stop_screen_share_wght200grad200fill1_40px.svg

<svg xmlns="http://www.w3.org/2000/svg" height="40" width="40"><path d="m35.208 38.125-4.583-4.542H2.167v-2.125h26.375l-1.75-1.75H7.375q-1.333 0-2.25-.916-.917-.917-.917-2.209V9.875q0-.542.292-1.021.292-.479.708-.729L1.583 4.542 3.083 3l33.625 33.625ZM16.833 19.708 15 17.917q-.292.375-.562.979-.271.604-.271 1.354v3.458h2.125v-2.625q0-.458.125-.771.125-.312.416-.604Zm17 9.667L23.542 19l2.166-2.292-3.625-3.583v2.542h-1.916l-9.334-9.334h21.834q1.291 0 2.208.938.917.937.917 2.229v17.083q0 .834-.48 1.646-.479.813-1.479 1.146Z"/></svg>

<svg xmlns="http://www.w3.org/2000/svg" height="40" width="40"><path d="M35.208 38.125 30.625 33.583H2.167V31.458H28.542L26.792 29.708H7.375Q6.042 29.708 5.125 28.792Q4.208 27.875 4.208 26.583V9.875Q4.208 9.333 4.5 8.854Q4.792 8.375 5.208 8.125L1.583 4.542L3.083 3L36.708 36.625ZM16.833 19.708 15 17.917Q14.708 18.292 14.438 18.896Q14.167 19.5 14.167 20.25V23.708H16.292V21.083Q16.292 20.625 16.417 20.312Q16.542 20 16.833 19.708ZM33.833 29.375 23.542 19 25.708 16.708 22.083 13.125V15.667H20.167L10.833 6.333H32.667Q33.958 6.333 34.875 7.271Q35.792 8.208 35.792 9.5V26.583Q35.792 27.417 35.312 28.229Q34.833 29.042 33.833 29.375Z"/></svg>
